src/icons/pos/static.svg

<svg width="24" height="24" viewBox="0 0 24 24" fill="none" xmlns="http://www.w3.org/2000/svg">
<path d="M19.0489 10.2647V16.5304C19.0489 17.7612 18.0419 18.7682 16.8112 18.7682H7.24472C6.01395 18.7682 5.00696 17.7612 5.00696 16.5304V10.2647" stroke="currentColor" stroke-width="1.5" stroke-miterlimit="10"/>
<path d="M9.4545 5.25771V9.08988C9.4545 10.2647 8.50345 11.2437 7.32862 11.2437H6.90904C5.00694 11.2437 3.7482 9.31365 4.50345 7.57939L5.06289 6.2647C5.34261 5.62134 5.95799 5.22974 6.62932 5.22974L9.4545 5.25771Z" stroke="currentColor" stroke-width="1.5" stroke-miterlimit="10"/>
<path d="M14.5454 5.25769V9.08986C14.5454 10.2647 15.4965 11.2437 16.6713 11.2437H17.0909C18.993 11.2437 20.2517 9.31364 19.4965 7.57937L18.937 6.26468C18.6573 5.6493 18.0419 5.25769 17.3706 5.25769H14.5454Z" stroke="currentColor" stroke-width="1.5" stroke-miterlimit="10"/>
<path d="M12 11.4955C10.6014 11.4955 9.48254 10.3486 9.48254 8.97801V5.28571H14.5455V8.97801C14.5455 10.3766 13.3986 11.4955 12 11.4955Z" stroke="currentColor" stroke-width="1.5" stroke-miterlimit="10"/>
<path d="M19.0489 10.3147V16.5804C19.0489 17.8112 18.0419 18.8182 16.8112 18.8182H7.24472C6.01395 18.8182 5.00696 17.8112 5.00696 16.5804V10.3147" stroke="currentColor" stroke-width="1.5" stroke-miterlimit="10"/>
<path d="M9.4545 5.3077V9.13986C9.4545 10.3147 8.50345 11.2937 7.32862 11.2937H6.90904C5.00694 11.2937 3.7482 9.36364 4.50345 7.62937L5.06289 6.31469C5.34261 5.67133 5.95799 5.27972 6.62932 5.27972L9.4545 5.3077Z" stroke="currentColor" stroke-width="1.5" stroke-miterlimit="10"/>
<path d="M14.5454 5.30768V9.13985C14.5454 10.3147 15.4965 11.2937 16.6713 11.2937H17.0909C18.993 11.2937 20.2517 9.36362 19.4965 7.62936L18.937 6.31467C18.6573 5.69929 18.0419 5.30768 17.3706 5.30768H14.5454Z" stroke="currentColor" stroke-width="1.5" stroke-miterlimit="10"/>
<path d="M12 11.5455C10.6014 11.5455 9.48254 10.3986 9.48254 9.028V5.33569H14.5455V9.028C14.5455 10.4266 13.3986 11.5455 12 11.5455Z" stroke="currentColor" stroke-width="1.5" stroke-miterlimit="10"/>
<path d="M14 18.5V15.25C14 15.1119 13.8881 15 13.75 15H10.25C10.1119 15 10 15.1119 10 15.25V18.5" stroke="currentColor" stroke-width="1.5"/>
</svg>

<svg width="24" height="24" viewBox="0 0 24 24" fill="none" xmlns="http://www.w3.org/2000/svg">
<path d="M19.05 10.266v6.265a2.244 2.244 0 0 1-2.238 2.238H7.246a2.244 2.244 0 0 1-2.238-2.238v-6.265" stroke="currentColor" stroke-width="1.5" stroke-miterlimit="10"/><path d="M9.455 5.262v3.833c0 1.174-.951 2.153-2.126 2.153h-.42a2.613 2.613 0 0 1-2.405-3.664l.56-1.315A1.702 1.702 0 0 1 6.63 5.234l2.825.028ZM14.547 5.258V9.09c0 1.175.95 2.154 2.126 2.154h.42c1.901 0 3.16-1.93 2.405-3.665l-.56-1.314a1.721 1.721 0 0 0-1.566-1.007h-2.825ZM12.002 11.499A2.525 2.525 0 0 1 9.484 8.98V5.29h5.063v3.692c0 1.399-1.147 2.518-2.545 2.518Z" stroke="currentColor" stroke-width="1.5" stroke-miterlimit="10"/>
</svg>
